Newaita-dark/actions/32/appointment-new.svg

<?xml version="1.0" encoding="UTF-8"?>
<svg xmlns="http://www.w3.org/2000/svg" xmlns:xlink="http://www.w3.org/1999/xlink" width="32pt" height="32pt" viewBox="0 0 32 32" version="1.1">
<defs>
<filter id="alpha" filterUnits="objectBoundingBox" x="0%" y="0%" width="100%" height="100%">
  <feColorMatrix type="matrix" in="SourceGraphic" values="0 0 0 0 1 0 0 0 0 1 0 0 0 0 1 0 0 0 1 0"/>
</filter>
<mask id="mask0">
  <g filter="url(#alpha)">
<rect x="0" y="0" width="32" height="32" style="fill:rgb(0%,0%,0%);fill-opacity:0.988235;stroke:none;"/>
  </g>
</mask>
<clipPath id="clip1">
  <rect x="0" y="0" width="32" height="32"/>
</clipPath>
<g id="surface5" clip-path="url(#clip1)">
<path style=" stroke:none;fill-rule:nonzero;fill:rgb(74.117649%,74.117649%,74.117649%);fill-opacity:1;" d="M 15.875 13.480469 C 17.339844 13.480469 18.523438 14.664062 18.523438 16.125 C 18.523438 17.589844 17.339844 18.773438 15.875 18.773438 C 14.414062 18.773438 13.230469 17.589844 13.230469 16.125 C 13.230469 14.664062 14.414062 13.480469 15.875 13.480469 Z M 15.875 13.480469 "/>
</g>
</defs>
<g id="surface1">
<path style=" stroke:none;fill-rule:nonzero;fill:rgb(92.54902%,25.098041%,47.843137%);fill-opacity:0.988235;" d="M 7.011719 10.992188 C 7.285156 10.515625 7.894531 10.355469 8.367188 10.628906 L 16.386719 15.257812 C 16.863281 15.53125 17.023438 16.140625 16.75 16.613281 C 16.476562 17.089844 15.871094 17.25 15.394531 16.976562 L 7.375 12.347656 C 6.898438 12.074219 6.738281 11.464844 7.011719 10.992188 Z M 7.011719 10.992188 "/>
<path style=" stroke:none;fill-rule:nonzero;fill:rgb(74.117649%,74.117649%,74.117649%);fill-opacity:1;" d="M 15.875 1.574219 C 7.8125 1.574219 1.324219 8.0625 1.324219 16.125 C 1.324219 24.1875 7.8125 30.679688 15.875 30.679688 C 23.9375 30.679688 30.429688 24.1875 30.429688 16.125 C 30.429688 8.0625 23.9375 1.574219 15.875 1.574219 Z M 15.875 3.558594 C 22.839844 3.558594 28.445312 9.164062 28.445312 16.125 C 28.445312 23.089844 22.839844 28.695312 15.875 28.695312 C 8.914062 28.695312 3.308594 23.089844 3.308594 16.125 C 3.308594 9.164062 8.914062 3.558594 15.875 3.558594 Z M 15.875 3.558594 "/>
<path style=" stroke:none;fill-rule:nonzero;fill:rgb(92.54902%,25.098041%,47.843137%);fill-opacity:0.988235;" d="M 24.742188 10.992188 C 25.015625 11.464844 24.851562 12.074219 24.378906 12.347656 L 16.359375 16.976562 C 15.882812 17.25 15.277344 17.089844 15.003906 16.613281 C 14.726562 16.140625 14.890625 15.53125 15.367188 15.257812 L 23.386719 10.628906 C 23.859375 10.355469 24.46875 10.515625 24.742188 10.992188 Z M 24.742188 10.992188 "/>
<use xlink:href="#surface5" mask="url(#mask0)"/>
</g>
</svg>

<svg xmlns="http://www.w3.org/2000/svg" xmlns:xlink="http://www.w3.org/1999/xlink" width="32pt" height="32pt" viewBox="0 0 32 32"><defs><filter id="a" filterUnits="objectBoundingBox" x="0%" y="0%" width="100%" height="100%"><feColorMatrix in="SourceGraphic" values="0 0 0 0 1 0 0 0 0 1 0 0 0 0 1 0 0 0 1 0"/></filter><mask id="d"><path fill-opacity=".988" d="M0 0h32v32H0z" filter="url(#a)"/></mask><clipPath id="b"><path d="M0 0h32v32H0z"/></clipPath><g id="c" clip-path="url(#b)"><path d="M15.875 13.48a2.646 2.646 0 1 1-2.645 2.645 2.644 2.644 0 0 1 2.645-2.645zm0 0" fill="#bdbdbd"/></g></defs><path d="M7.012 10.992a.991.991 0 0 1 1.355-.363l8.02 4.629a.991.991 0 1 1-.992 1.719l-8.02-4.63a.991.991 0 0 1-.363-1.355zm0 0" fill="#ec407a" fill-opacity=".988"/><path d="M15.875 1.574a14.517 14.517 0 0 0-14.55 14.551 14.52 14.52 0 0 0 14.55 14.555A14.524 14.524 0 0 0 30.43 16.125a14.52 14.52 0 0 0-14.555-14.55zm0 1.985a12.54 12.54 0 0 1 12.57 12.566c0 6.965-5.605 12.57-12.57 12.57a12.54 12.54 0 0 1-12.566-12.57A12.54 12.54 0 0 1 15.875 3.559zm0 0" fill="#bdbdbd"/><path d="M24.742 10.992a.995.995 0 0 1-.363 1.356l-8.02 4.629a.99.99 0 0 1-1.355-.364.988.988 0 0 1 .363-1.355l8.02-4.63a.991.991 0 0 1 1.355.364zm0 0" fill="#ec407a" fill-opacity=".988"/><use xlink:href="#c" mask="url(#d)"/></svg>
